images/svg/youtube-icon.svg

<svg width="22" height="20" viewBox="0 0 22 20" fill="none" xmlns="http://www.w3.org/2000/svg">
<path fill-rule="evenodd" clip-rule="evenodd" d="M19.6396 4.29942C19.9425 4.59206 20.1577 4.95443 20.2633 5.34992C20.5454 6.8155 20.6824 8.30238 20.6724 9.79158C20.678 11.2585 20.5411 12.7229 20.2633 14.1666C20.1577 14.5621 19.9425 14.9244 19.6396 15.2171C19.3367 15.5097 18.9567 15.7223 18.5381 15.8333C17.0085 16.2166 10.8902 16.2166 10.8902 16.2166C10.8902 16.2166 4.77182 16.2166 3.24224 15.8333C2.83211 15.7281 2.45786 15.5256 2.15565 15.2453C1.85343 14.965 1.63347 14.6165 1.51701 14.2333C1.23489 12.7677 1.09795 11.2808 1.10793 9.79158C1.10014 8.31351 1.23707 6.83788 1.51701 5.38325C1.62264 4.98776 1.83779 4.6254 2.14071 4.33276C2.44363 4.04012 2.8236 3.82757 3.24224 3.71659C4.77182 3.33325 10.8902 3.33325 10.8902 3.33325C10.8902 3.33325 17.0085 3.33325 18.5381 3.68325C18.9567 3.79424 19.3367 4.00679 19.6396 4.29942ZM14.0031 9.79161L8.88962 12.5166V7.06661L14.0031 9.79161Z" fill="white"/>
</svg>

<svg xmlns="http://www.w3.org/2000/svg" width="22" height="20" fill="none"><path fill="#fff" fill-rule="evenodd" d="M19.64 4.3c.302.292.518.654.623 1.05.282 1.466.42 2.952.41 4.442a22.69 22.69 0 0 1-.41 4.375c-.105.395-.32.757-.623 1.05a2.51 2.51 0 0 1-1.102.616c-1.53.384-7.648.384-7.648.384s-6.118 0-7.648-.384a2.516 2.516 0 0 1-1.086-.588 2.291 2.291 0 0 1-.639-1.012 22.687 22.687 0 0 1-.41-4.441c-.007-1.478.13-2.954.41-4.409.106-.395.32-.758.624-1.05a2.51 2.51 0 0 1 1.101-.616c1.53-.384 7.648-.384 7.648-.384s6.119 0 7.648.35a2.51 2.51 0 0 1 1.102.616Zm-5.637 5.492L8.89 12.517v-5.45l5.113 2.725Z" clip-rule="evenodd"/></svg>
